public/socials/telegram.svg

<svg width="30" height="30" viewBox="0 0 30 30" fill="none" xmlns="http://www.w3.org/2000/svg">
<g id="bi:telegram" clip-path="url(#clip0_200_602)">
<path id="Vector" d="M30 15C30 18.9782 28.4196 22.7936 25.6066 25.6066C22.7936 28.4196 18.9782 30 15 30C11.0218 30 7.20644 28.4196 4.3934 25.6066C1.58035 22.7936 0 18.9782 0 15C0 11.0218 1.58035 7.20644 4.3934 4.3934C7.20644 1.58035 11.0218 0 15 0C18.9782 0 22.7936 1.58035 25.6066 4.3934C28.4196 7.20644 30 11.0218 30 15ZM15.5381 11.0738C14.0794 11.6813 11.1619 12.9375 6.78938 14.8425C6.08063 15.1237 5.7075 15.4012 5.67375 15.6712C5.6175 16.1269 6.18938 16.3069 6.9675 16.5525L7.29563 16.6556C8.06063 16.905 9.09188 17.1956 9.62625 17.2069C10.1137 17.2181 10.6556 17.0194 11.2537 16.6069C15.3394 13.8488 17.4488 12.4556 17.58 12.4256C17.6737 12.4031 17.805 12.3769 17.8913 12.4556C17.9794 12.5325 17.97 12.6806 17.9606 12.72C17.9044 12.9619 15.66 15.0469 14.4994 16.1269C14.1375 16.4644 13.8806 16.7025 13.8281 16.7569C13.7125 16.875 13.595 16.9913 13.4756 17.1056C12.7631 17.7919 12.2306 18.3056 13.5037 19.1456C14.1169 19.5506 14.6081 19.8825 15.0975 20.2162C15.63 20.58 16.1625 20.9419 16.8525 21.3956C17.0269 21.5081 17.1956 21.63 17.3588 21.7463C17.9794 22.1887 18.54 22.5863 19.2281 22.5225C19.6294 22.485 20.0438 22.11 20.2537 20.985C20.7506 18.3281 21.7275 12.5737 21.9525 10.2019C21.9662 10.0047 21.9581 9.80662 21.9281 9.61125C21.9105 9.4536 21.8342 9.30836 21.7144 9.20438C21.5438 9.08661 21.3404 9.02559 21.1331 9.03C20.5706 9.03938 19.7025 9.34125 15.5381 11.0738Z" fill="#232524"/>
</g>
<defs>
<clipPath id="clip0_200_602">
<rect width="30" height="30" fill="white"/>
</clipPath>
</defs>
</svg>

<svg width="30" height="30" fill="none" xmlns="http://www.w3.org/2000/svg"><g clip-path="url(#a)"><path d="M30 15a15 15 0 1 1-30 0 15 15 0 0 1 30 0zm-14.462-3.926c-1.459.607-4.376 1.864-8.749 3.768-.708.282-1.082.56-1.115.83-.057.455.515.635 1.293.88l.329.104c.765.249 1.796.54 2.33.55.488.012 1.03-.187 1.628-.6 4.085-2.757 6.195-4.15 6.326-4.18.094-.023.225-.05.311.03.088.077.079.225.07.264-.057.242-2.301 2.327-3.462 3.407-.362.337-.618.576-.67.63a15.25 15.25 0 0 1-.353.349c-.713.686-1.245 1.2.028 2.04.613.405 1.104.736 1.594 1.07.532.364 1.065.726 1.754 1.18.175.112.344.234.507.35.62.443 1.181.84 1.87.777.4-.038.815-.413 1.025-1.538.497-2.657 1.473-8.411 1.698-10.783a2.671 2.671 0 0 0-.024-.59.632.632 0 0 0-.214-.408.986.986 0 0 0-.58-.174c-.563.01-1.431.311-5.596 2.044z" fill="#232524"/></g><defs><clipPath id="a"><path fill="#fff" d="M0 0h30v30H0z"/></clipPath></defs></svg>
